static/images/pieces/chennis/wCF.svg

<svg height="45" width="45" xmlns="http://www.w3.org/2000/svg" xmlns:xlink="http://www.w3.org/1999/xlink"><filter id="a" color-interpolation-filters="sRGB" height="1.000022" width="1.000022" x="-.000011" y="-.000011"><feGaussianBlur stdDeviation=".00002475"/></filter><g fill-rule="evenodd" stroke="#000" stroke-linecap="round" stroke-linejoin="round" stroke-width="1.5" transform="matrix(.6453104 .37257013 -.37257013 .6453104 17.519228 -4.693523)"><g fill="#d35f5f"><g stroke="none"><circle cx="6" cy="12" r="2.75"/><circle cx="22.5" cy="8" filter="url(#a)" r="2.75"/><circle cx="39" cy="12" r="2.75"/></g><path d="m9 26c8.5-1.5 21-1.5 27 0l2.5-12.5-7.5 11.5-2-5-3.5 4.5-3-14.5-3 14.5-3.5-4.5-2 5-7.5-11.5z" stroke="#d35f5f" stroke-linecap="butt"/><path d="m9 26c0 2 1.5 2 2.5 4 1 1.5 1 1 .5 3.5-1.5 1-1.5 2.5-1.5 2.5h23.5s.5-1.5-1-2.5c-.5-2.5-.5-2 .5-3.5 1-2 2.5-2 2.5-4-8.5-1.5-18.5-1.5-27 0z" stroke="#d35f5f" stroke-linecap="butt"/></g><path d="m11 29c7.44776-2.590974 15.55224-2.590974 23 0m-21.5 2.5c6.946703-1.120144 13.557044-.894841 20 0" fill="none" stroke="#ececec"/></g><g fill="#fff"><path d="m33.393565 24.996743-17.906034-15.2512399-5.9897591 5.6347829c1.0568801 1.056879 14.5213591 17.454017 14.5213591 17.454017 7.338306 9.869936 17.191534-.685323 9.374434-7.83756z" stroke="#000" stroke-linejoin="round" stroke-width="1.630609" transform="matrix(.88855673 -.23808806 .23808806 .88855673 -6.419073 11.561755)"/><path d="m26.068395 33.681637 8.12929.174823c1.58485 4.788575 4.833626 6.803941 8.129284 8.741167-7.067199 0-7.838202-1.80317-10.227168-4.25575l-5.943993-.285641z" stroke="#1a1a1a" stroke-width="1.5"/><circle cx="21.923187" cy="35.769096" r="6.92265" stroke="#000" stroke-linecap="round" stroke-linejoin="round" stroke-width="1.5"/></g><circle cx="21.923187" cy="35.769096" r="1.696525"/></svg>

<?xml version="1.0" encoding="UTF-8" standalone="no"?>
<svg
   xmlns:dc="http://purl.org/dc/elements/1.1/"
   xmlns:cc="http://creativecommons.org/ns#"
   xmlns:rdf="http://www.w3.org/1999/02/22-rdf-syntax-ns#"
   xmlns:svg="http://www.w3.org/2000/svg"
   xmlns="http://www.w3.org/2000/svg"
   xmlns:sodipodi="http://sodipodi.sourceforge.net/DTD/sodipodi-0.dtd"
   xmlns:inkscape="http://www.inkscape.org/namespaces/inkscape"
   width="45"
   height="45"
   version="1.1"
   id="svg6582"
   sodipodi:docname="wCF.svg"
   inkscape:version="1.0.1 (3bc2e813f5, 2020-09-07)">
  <metadata
     id="metadata6588">
    <rdf:RDF>
      <cc:Work
         rdf:about="">
        <dc:format>image/svg+xml</dc:format>
        <dc:type
           rdf:resource="http://purl.org/dc/dcmitype/StillImage" />
        <dc:title></dc:title>
      </cc:Work>
    </rdf:RDF>
  </metadata>
  <defs
     id="defs6586">
    <filter
       inkscape:collect="always"
       style="color-interpolation-filters:sRGB"
       id="filter4403"
       x="-1.08e-05"
       width="1.0000216"
       y="-1.08e-05"
       height="1.0000216">
      <feGaussianBlur
         inkscape:collect="always"
         stdDeviation="2.475e-05"
         id="feGaussianBlur4405" />
    </filter>
  </defs>
  <sodipodi:namedview
     inkscape:document-rotation="0"
     pagecolor="#ffffff"
     bordercolor="#666666"
     borderopacity="1"
     objecttolerance="10"
     gridtolerance="10"
     guidetolerance="10"
     inkscape:pageopacity="0"
     inkscape:pageshadow="2"
     inkscape:window-width="3840"
     inkscape:window-height="2050"
     id="namedview6584"
     showgrid="false"
     inkscape:zoom="3.409826"
     inkscape:cx="109.11889"
     inkscape:cy="129.85551"
     inkscape:window-x="-12"
     inkscape:window-y="-12"
     inkscape:window-maximized="1"
     inkscape:current-layer="svg6582" />
  <g
     fill-rule="evenodd"
     stroke="#000000"
     stroke-width="1.5"
     stroke-linecap="round"
     stroke-linejoin="round"
     id="g10992"
     transform="matrix(0.6453104,0.37257013,-0.37257013,0.6453104,17.519228,-4.6935226)">
    <g
       stroke="none"
       id="g10982">
      <circle
         cx="6"
         cy="12"
         r="2.75"
         id="circle10972"
         style="fill:#d35f5f;fill-opacity:1" />
      <circle
         cx="22.5"
         cy="8"
         r="2.75"
         id="circle10976"
         style="filter:url(#filter4403);fill:#d35f5f;fill-opacity:1" />
      <circle
         cx="39"
         cy="12"
         r="2.75"
         id="circle10980"
         style="fill:#d35f5f;fill-opacity:1" />
    </g>
    <path
       d="m 9,26 c 8.5,-1.5 21,-1.5 27,0 L 38.5,13.5 31,25 29,20 25.5,24.5 22.5,10 19.5,24.5 16,20 14,25 6.5,13.5 Z"
       stroke-linecap="butt"
       id="path10984"
       sodipodi:nodetypes="cccccccccccc"
       style="fill:#d35f5f;fill-opacity:1;stroke:#d35f5f;stroke-opacity:1" />
    <path
       d="m 9,26 c 0,2 1.5,2 2.5,4 1,1.5 1,1 0.5,3.5 -1.5,1 -1.5,2.5 -1.5,2.5 H 34 c 0,0 0.5,-1.5 -1,-2.5 -0.5,-2.5 -0.5,-2 0.5,-3.5 1,-2 2.5,-2 2.5,-4 -8.5,-1.5 -18.5,-1.5 -27,0 z"
       stroke-linecap="butt"
       id="path10986"
       sodipodi:nodetypes="ccccccccc"
       style="fill:#d35f5f;fill-opacity:1;stroke:#d35f5f;stroke-opacity:1" />
    <path
       d="m 11,29 c 7.44776,-2.590974 15.55224,-2.590974 23,0 m -21.5,2.5 c 6.946703,-1.120144 13.557044,-0.894841 20,0"
       fill="none"
       stroke="#ececec"
       id="path10990"
       sodipodi:nodetypes="cccc" />
  </g>
  <g
     id="g4488-2"
     transform="matrix(0.88855673,-0.23808806,0.23808806,0.88855673,-6.4190732,11.561755)"
     style="stroke-width:1.63060916;stroke-miterlimit:4;stroke-dasharray:none;paint-order:normal">
    <path
       sodipodi:nodetypes="ccccc"
       inkscape:connector-curvature="0"
       id="path980-1"
       d="M 33.393565,24.996743 15.487531,9.7455031 9.4977719,15.380286 c 1.0568801,1.056879 14.5213591,17.454017 14.5213591,17.454017 7.338306,9.869936 17.191534,-0.685323 9.374434,-7.83756 z"
       style="fill:#ffffff;fill-opacity:1;stroke:#000000;stroke-width:1.63060916;stroke-linecap:butt;stroke-linejoin:round;stroke-miterlimit:4;stroke-dasharray:none;stroke-opacity:1;paint-order:normal" />
  </g>
  <path
     style="fill:#ffffff;fill-opacity:1;stroke:#1a1a1a;stroke-width:1.5;stroke-linecap:butt;stroke-linejoin:miter;stroke-opacity:1;stroke-miterlimit:4;stroke-dasharray:none;paint-order:normal"
     d="m 26.068395,33.681637 8.12929,0.174823 c 1.58485,4.788575 4.833626,6.803941 8.129284,8.741167 -7.067199,0 -7.838202,-1.80317 -10.227168,-4.25575 l -5.943993,-0.285641 z"
     id="path11061"
     sodipodi:nodetypes="cccccc" />
  <circle
     style="fill:#ffffff;fill-opacity:1;stroke:#000000;stroke-width:1.5;stroke-linecap:round;stroke-linejoin:round;stroke-miterlimit:4;stroke-dasharray:none;stroke-opacity:1;paint-order:normal"
     id="path11057"
     cx="21.923187"
     cy="35.769096"
     r="6.9226503" />
  <circle
     style="fill:#000000;fill-opacity:1;stroke:none;stroke-width:0.602287;stroke-linecap:round;stroke-linejoin:round;stroke-miterlimit:4;stroke-dasharray:none;stroke-opacity:1;paint-order:stroke fill markers"
     id="circle11059"
     cx="21.923187"
     cy="35.769096"
     r="1.6965253" />
</svg>
